icons/triangle-arrow-up-outline.svg

<svg xmlns="http://www.w3.org/2000/svg" width="24" height="24" viewBox="0 0 24 24">
  <path d="M9.37135227,3.70432092 C10.1698214,2.25255887 11.9939942,1.72296031 13.4457562,2.52142944 C13.9442354,2.79559297 14.3544842,3.20584177 14.6286477,3.70432092 L14.6286477,3.70432092 L22.2461053,17.5542438 C23.0445744,19.0060058 22.5149759,20.8301786 21.0632138,21.6286477 C20.6202789,21.8722619 20.1229665,22 19.6174576,22 L19.6174576,22 L4.38254244,22 C2.72568819,22 1.38254244,20.6568542 1.38254244,19 C1.38254244,18.4944911 1.5102805,17.9971787 1.75389472,17.5542438 L1.75389472,17.5542438 Z M12.3764912,4.2235543 C11.9128771,4.03449217 11.3709293,4.2188035 11.1237841,4.66815842 L11.1237841,4.66815842 L3.50632653,18.5180813 C3.42512179,18.6657262 3.38254244,18.831497 3.38254244,19 C3.38254244,19.5522847 3.83025769,20 4.38254244,20 L4.38254244,20 L19.6174576,20 C19.7859605,20 19.9517313,19.9574206 20.0993763,19.8762159 C20.583297,19.6100595 20.7598298,19.0020019 20.4936735,18.5180813 L20.4936735,18.5180813 L12.8762159,4.66815842 C12.7848281,4.5019987 12.6480785,4.3652491 12.4819187,4.27386126 L12.4819187,4.27386126 Z M11.347434,10.242208 L11.374551,10.2196888 L11.3755424,10.2185191 L11.3795424,10.2155191 L11.4046934,10.1963346 L11.4046934,10.1963346 C11.4288693,10.1784901 11.453725,10.1617187 11.4793398,10.1460674 C11.4913869,10.1386069 11.5036056,10.1314988 11.5159379,10.1246712 C11.5357061,10.1137939 11.5561086,10.1033766 11.5769009,10.0936538 C11.5939015,10.085679 11.6112044,10.0781964 11.628664,10.0712255 C11.6484208,10.0633157 11.6682023,10.0561225 11.6882636,10.0495467 C11.7031487,10.0447287 11.7185367,10.0400977 11.734007,10.0358451 C11.7555635,10.0298336 11.7772539,10.0246398 11.7992059,10.0201652 C11.8166247,10.0167022 11.834051,10.0136281 11.8515331,10.0110178 C11.8705042,10.0081122 11.890153,10.0057661 11.909968,10.003998 C11.9208131,10.00307 11.9308872,10.0023256 11.9409686,10.0017331 L11.980824,10.0001802 L12,10 L12,10 L12.019,10.001 L12.0255424,10.0005191 L12.0805424,10.0035191 L12.1489612,10.0110193 L12.1489612,10.0110193 C12.165949,10.0136281 12.1833753,10.0167022 12.2007258,10.0202401 C12.2227461,10.0246398 12.2444365,10.0298336 12.2658396,10.035721 C12.2814633,10.0400977 12.2968513,10.0447287 12.3121425,10.0497381 C12.3317977,10.0561225 12.3515792,10.0633157 12.3710585,10.071104 C12.3887956,10.0781964 12.4060985,10.085679 12.4232215,10.0936734 C12.4438914,10.1033766 12.4642939,10.1137939 12.484277,10.1248758 C12.4963944,10.1314988 12.5086131,10.1386069 12.5207088,10.1459955 C12.546275,10.1617187 12.5711307,10.1784901 12.5951593,10.1963135 L12.6128994,10.2097046 L12.6128994,10.2097046 C12.6196628,10.2150711 12.6225624,10.2173721 12.625449,10.2196888 L12.7071068,10.2928932 L15.7071068,13.2928932 C16.0976311,13.6834175 16.0976311,14.3165825 15.7071068,14.7071068 C15.3466228,15.0675907 14.7793918,15.0953203 14.3871006,14.7902954 L14.2928932,14.7071068 L13,13.415 L13,17 C13,17.5522847 12.5522847,18 12,18 C11.4871642,18 11.0644928,17.6139598 11.0067277,17.1166211 L11,17 L11,13.415 L9.70710678,14.7071068 C9.31658249,15.0976311 8.68341751,15.0976311 8.29289322,14.7071068 C7.93240926,14.3466228 7.90467972,13.7793918 8.20970461,13.3871006 L8.29289322,13.2928932 L11.2928932,10.2928932 L11.347434,10.242208 L11.347434,10.242208 Z"/>
</svg>

<svg xmlns="http://www.w3.org/2000/svg" viewBox="0 0 24 24">
  <path d="M9.37 3.7a3 3 0 0 1 5.26 0l7.62 13.85A3 3 0 0 1 19.62 22H4.38a3 3 0 0 1-2.63-4.45zm3 .52a1 1 0 0 0-1.25.45L3.51 18.52A1 1 0 0 0 4.38 20h15.24a1 1 0 0 0 .87-1.48L12.88 4.67a1 1 0 0 0-.4-.4zm-1.02 6.02.02-.02h.01l.02-.02a1.03 1.03 0 0 1 .54-.2h.14l.07.01a1.08 1.08 0 0 1 .37.14l.08.05.01.01.02.01.08.07 3 3a1 1 0 0 1-1.32 1.5l-.1-.08L13 13.4V17a1 1 0 0 1-2 .12V13.4l-1.3 1.3a1 1 0 0 1-1.49-1.32l.08-.1 3-3 .06-.05z"/>
</svg>
